media/img/firefox/welcome/page19/private.svg

<svg width="200" height="125" viewBox="0 0 200 125" xmlns="http://www.w3.org/2000/svg" xmlns:xlink="http://www.w3.org/1999/xlink">
    <path id="Path" fill="#c3c5ff" stroke="none" d="M 90.619896 65.980499 L 42.861198 65.980499 C 41.989601 65.980499 41.283001 66.688004 41.283001 67.5606 L 41.283001 104.018898 C 41.283001 104.891602 41.989601 105.598999 42.861198 105.598999 L 90.619896 105.598999 C 91.4916 105.598999 92.198196 104.891602 92.198196 104.018898 L 92.198196 67.5606 C 92.198196 66.688004 91.4916 65.980499 90.619896 65.980499 Z"/>
    <path id="path1" fill="#000000" stroke="none" d="M 62.4767 12.377563 C 62.438301 12.377563 62.400299 12.369987 62.364799 12.35527 C 62.329399 12.340561 62.2971 12.319 62.27 12.291817 C 62.242802 12.264641 62.221302 12.232361 62.2066 12.196854 C 62.191902 12.161331 62.184299 12.123268 62.184299 12.084831 L 62.184299 9.436943 C 62.189899 9.363335 62.223 9.29454 62.2771 9.244347 C 62.3311 9.194153 62.402203 9.16626 62.475903 9.16626 C 62.549603 9.16626 62.620602 9.194153 62.674702 9.244347 C 62.728802 9.29454 62.761902 9.363335 62.767502 9.436943 L 62.767502 12.084831 C 62.7677 12.123192 62.7603 12.161217 62.7458 12.196716 C 62.7313 12.232231 62.7099 12.264511 62.682899 12.291718 C 62.655899 12.318916 62.623699 12.340508 62.588402 12.35524 C 62.553001 12.369972 62.514999 12.377563 62.4767 12.377563 Z"/>
    <path id="path2" fill="#000000" fill-rule="evenodd" stroke="none" d="M 62.4757 9.332649 C 62.443897 9.332649 62.4132 9.344688 62.3899 9.366364 C 62.367699 9.386909 62.353699 9.414665 62.3503 9.44458 L 62.3503 12.084892 C 62.3503 12.101486 62.3536 12.117928 62.359898 12.133263 C 62.366199 12.148598 62.3755 12.162537 62.387299 12.174271 C 62.398998 12.186012 62.412899 12.19532 62.4282 12.201668 C 62.4436 12.208031 62.459999 12.211304 62.476601 12.211304 C 62.493 12.211304 62.509197 12.208054 62.524399 12.201729 C 62.5396 12.195419 62.553299 12.186172 62.564899 12.174507 C 62.5765 12.162849 62.585697 12.14901 62.5919 12.133797 C 62.598099 12.118584 62.601299 12.10228 62.6012 12.085838 L 62.6012 12.084892 L 62.6012 9.44458 C 62.597698 9.414665 62.583698 9.386909 62.5616 9.366364 C 62.5382 9.344696 62.507599 9.332649 62.4757 9.332649 Z M 62.163898 9.122452 C 62.248699 9.043739 62.3601 9 62.4757 9 C 62.5914 9 62.702698 9.043739 62.787498 9.122452 C 62.872299 9.201164 62.924198 9.309044 62.932999 9.424477 L 62.933399 9.430733 L 62.933399 12.084457"/>
    <path id="path3" fill="#000000" stroke="none" d="M 64.096497 10.760857 C 64.096695 10.799217 64.089294 10.83725 64.074799 10.872749 C 64.060295 10.908257 64.038895 10.940536 64.011902 10.967751 C 63.984901 10.994949 63.952801 11.016541 63.9174 11.031273 C 63.882 11.045998 63.844101 11.053589 63.805698 11.053589 L 61.1609 11.053589 C 61.087299 11.048027 61.0186 11.014862 60.968498 10.960732 C 60.9184 10.906601 60.890499 10.83551 60.890499 10.761688 C 60.890499 10.687866 60.9184 10.616768 60.968498 10.562637 C 61.0186 10.508507 61.087299 10.475349 61.1609 10.469788 L 63.805698 10.469788 C 63.882801 10.469788 63.956799 10.50045 64.011299 10.555038 C 64.065796 10.609627 64.096497 10.683662 64.096497 10.760857 Z"/>
    <path id="path4" fill="#000000" fill-rule="evenodd" stroke="none" d="M 61.154598 10.303467 L 63.805698 10.303467 C 63.926899 10.303467 64.043098 10.351662 64.128799 10.437431 C 64.214401 10.523109 64.262497 10.639267 64.262596 10.760422 M 61.1684 10.636124 C 61.138599 10.639557 61.110798 10.65358 61.090298 10.675743 C 61.068699 10.699112 61.056599 10.729813 61.056599 10.761688 C 61.056599 10.793571 61.068699 10.824272 61.090298 10.847641 C 61.110798 10.869797 61.138599 10.88382 61.1684 10.88726 L 63.805698 10.88726 C 63.822201 10.887268 63.838402 10.884018 63.8536 10.877701 C 63.868801 10.871391 63.8825 10.862137 63.8941 10.850479 C 63.905701 10.838821 63.914799 10.824982 63.921101 10.809769 C 63.927299 10.794548 63.930401 10.778252 63.930302 10.76181 L 63.930302 10.760857 C 63.930302 10.727768 63.917198 10.696037 63.893799 10.672653 C 63.870499 10.649261 63.838799 10.636124 63.805698 10.636124 L 61.1684 10.636124 Z"/>
    <path id="path5" fill="#000000" fill-rule="evenodd" stroke="none" d="M 79.781204 112.920998 C 79.2463 112.920998 78.812599 113.355003 78.812599 113.889999 C 78.812599 114.426003 79.2463 114.860001 79.781204 114.860001 C 80.316101 114.860001 80.749702 114.426003 80.749702 113.889999 C 80.749702 113.355003 80.316101 112.920998 79.781204 112.920998 Z M 78.148102 113.889999 C 78.148102 112.987 78.879204 112.254997 79.781204 112.254997 C 80.683105 112.254997 81.414299 112.987 81.414299 113.889999 C 81.414299 114.792999 80.683105 115.525002 79.781204 115.525002 C 78.879204 115.525002 78.148102 114.792999 78.148102 113.889999 Z"/>
    <path id="path6" fill="#000000" fill-rule="evenodd" stroke="none" d="M 33.042648 89.403999 C 32.507721 89.403999 32.074081 89.838097 32.074081 90.373703 C 32.074081 90.909203 32.507729 91.3433 33.042648 91.3433 C 33.577572 91.3433 34.011211 90.909203 34.011211 90.373703 C 34.011211 89.838097 33.577572 89.403999 33.042648 89.403999 Z M 31.409546 90.373703 C 31.409546 89.470703 32.140709 88.738701 33.042648 88.738701 C 33.944592 88.738701 34.675751 89.470703 34.675751 90.373703 C 34.675751 91.276604 33.944592 92.008598 33.042648 92.008598 C 32.140709 92.008598 31.409546 91.276604 31.409546 90.373703 Z"/>
    <g id="Group">
        <path id="path7" fill="#c3c5ff" stroke="none" d="M 141.446991 27.611 L 47.860397 27.611 L 47.860397 44.466301 L 141.446991 44.466301 L 141.446991 27.611 Z"/>
    </g>
    <path id="path8" fill="#ffffff" stroke="#111111" stroke-linecap="round" stroke-linejoin="round" d="M 48.360199 99.023201 L 48.360199 44.849998 L 140.946991 44.849998 L 140.946991 99.023201 L 48.360199 99.023201 Z"/>
    <path id="path9" fill="#000000" fill-rule="evenodd" stroke="none" d="M 55.799698 34.576904 C 54.881298 34.576904 54.1367 35.322296 54.1367 36.241798 C 54.1367 37.161301 54.881298 37.9067 55.799698 37.9067 C 56.718201 37.9067 57.4627 37.161301 57.4627 36.241798 C 57.4627 35.322296 56.718201 34.576904 55.799698 34.576904 Z M 53.472198 36.241798 C 53.472198 34.954803 54.514198 33.911598 55.799698 33.911598 C 57.085197 33.911598 58.1273 34.954803 58.1273 36.241798 C 58.1273 37.528702 57.085197 38.571999 55.799698 38.571999 C 54.514198 38.571999 53.472198 37.528702 53.472198 36.241798 Z"/>
    <path id="path10" fill="#000000" fill-rule="evenodd" stroke="none" d="M 64.742805 34.453796 C 63.824402 34.453796 63.0798 35.199203 63.0798 36.118698 C 63.0798 37.0382 63.824402 37.7836 64.742805 37.7836 C 65.661301 37.7836 66.4058 37.0382 66.4058 36.118698 C 66.4058 35.199203 65.661301 34.453796 64.742805 34.453796 Z M 62.415302 36.118698 C 62.415302 34.831802 63.457401 33.788498 64.742805 33.788498 C 66.028305 33.788498 67.070404 34.831802 67.070404 36.118698 C 67.070404 37.405701 66.028305 38.448898 64.742805 38.448898 C 63.457401 38.448898 62.415302 37.405701 62.415302 36.118698 Z"/>
    <path id="path11" fill="#000000" fill-rule="evenodd" stroke="none" d="M 73.687401 34.453796 C 72.768997 34.453796 72.024399 35.199203 72.024399 36.118698 C 72.024399 37.0382 72.768997 37.7836 73.687401 37.7836 C 74.605896 37.7836 75.350395 37.0382 75.350395 36.118698 C 75.350395 35.199203 74.605896 34.453796 73.687401 34.453796 Z M 71.359901 36.118698 C 71.359901 34.831802 72.401901 33.788498 73.687401 33.788498 C 74.9729 33.788498 76.0149 34.831802 76.0149 36.118698 C 76.0149 37.405701 74.9729 38.448898 73.687401 38.448898 C 72.401901 38.448898 71.359901 37.405701 71.359901 36.118698 Z"/>
    <path id="path12" fill="#ffffff" stroke="#111111" stroke-linecap="round" stroke-linejoin="round" d="M 116.604698 80.126404 L 116.604698 72.087997 C 116.604698 69.125 117.780403 66.283295 119.873199 64.188202 C 121.966003 62.092999 124.804398 60.916 127.764 60.916 C 130.723602 60.916 133.561996 62.092999 135.654999 64.188202 C 137.748001 66.283295 138.923004 69.125 138.923004 72.087997 L 138.923004 80.126404 L 145.25 80.126404 L 145.25 72.600204 C 145.25 67.957504 143.406998 63.504799 140.128006 60.221901 C 136.848999 56.938896 132.401001 55.094597 127.764 55.094597 C 123.126503 55.094597 118.678902 56.938896 115.399696 60.221901 C 112.120598 63.504799 110.278297 67.957504 110.278297 72.600204 L 110.278297 80.126404 L 116.604698 80.126404 Z"/>
    <path id="path13" fill="#ad79ff" stroke="#111111" stroke-linecap="round" stroke-linejoin="round" d="M 146.039001 80.010002 L 109.489304 80.010002 C 107.935898 80.010002 106.676598 81.270699 106.676598 82.825897 L 106.676598 109.478996 C 106.676598 111.035004 107.935898 112.294998 109.489304 112.294998 L 146.039001 112.294998 C 147.59201 112.294998 148.852005 111.035004 148.852005 109.478996 L 148.852005 82.825897 C 148.852005 81.270699 147.59201 80.010002 146.039001 80.010002 Z"/>
    <path id="path14" fill="#ffffff" stroke="#111111" stroke-linecap="round" stroke-linejoin="round" d="M 132.328003 93.666901 C 132.328003 94.438904 132.132996 95.198402 131.759995 95.874397 C 131.388 96.5504 130.850403 97.120796 130.197891 97.532303 L 130.197891 100.772301 C 130.197891 101.418503 129.941498 102.0383 129.485001 102.495201 C 129.028595 102.952202 128.4095 103.2089 127.764 103.2089 C 127.1185 103.2089 126.499496 102.952202 126.042999 102.495201 C 125.586601 102.0383 125.3302 101.418503 125.3302 100.772301 L 125.3302 97.532303 C 124.658897 97.108597 124.109497 96.516998 123.736397 95.815804 C 123.363197 95.1147 123.1791 94.328201 123.202301 93.534103 C 123.225403 92.739998 123.455002 91.965599 123.868301 91.287498 C 124.2817 90.609299 124.864502 90.050697 125.559303 89.666901 C 126.254097 89.283096 127.036903 89.087303 127.830399 89.0989 C 128.623795 89.110397 129.400589 89.328903 130.083893 89.732803 C 130.767303 90.136597 131.334 90.711899 131.72699 91.401802 C 132.121002 92.091698 132.328003 92.872398 132.328003 93.666901 Z"/>
    <path id="path15" fill="#6f4ae7" stroke="none" d="M 78.0784 65.343498 C 77.820206 64.896301 77.395302 64.569901 76.896805 64.436096 C 76.398399 64.302299 75.867302 64.372002 75.420303 64.630005 L 71.145599 67.101601 L 71.145599 62.158401 C 71.130798 61.6511 70.919106 61.169498 70.555405 60.815796 C 70.191704 60.462196 69.704704 60.264397 69.197701 60.264397 C 68.690704 60.264397 68.203705 60.462196 67.840004 60.815796 C 67.476303 61.169498 67.264603 61.6511 67.249802 62.158401 L 67.249802 67.101601 L 62.975101 64.630005 C 62.753601 64.501999 62.509003 64.418999 62.255402 64.385605 C 62.001801 64.352203 61.744102 64.369202 61.497002 64.435501 C 61.25 64.5019 61.018402 64.616302 60.815502 64.772202 C 60.612602 64.928101 60.442303 65.122604 60.314503 65.344398 C 60.1866 65.5662 60.103703 65.811005 60.070301 66.064896 C 60.037003 66.318802 60.054001 66.576797 60.120201 66.824203 C 60.186501 67.071503 60.3008 67.303398 60.456501 67.5065 C 60.612301 67.709595 60.806499 67.880096 61.028 68.008102 L 65.301003 70.479599 L 61.026402 72.951202 C 60.804802 73.0793 60.6106 73.249901 60.454903 73.453102 C 60.299202 73.656303 60.185001 73.888298 60.118801 74.135696 C 60.052601 74.383102 60.035801 74.641197 60.069202 74.895103 C 60.1026 75.149101 60.185699 75.393898 60.313702 75.6157 C 60.441601 75.837502 60.612 76.031898 60.815002 76.187798 C 61.018002 76.343697 61.249599 76.458099 61.496799 76.5243 C 61.7439 76.590599 62.001701 76.607498 62.255302 76.573997 C 62.509003 76.540497 62.753601 76.457397 62.975101 76.3293 L 67.251404 73.857697 L 67.251404 78.799202 C 67.243805 79.060097 67.288605 79.319801 67.383003 79.563103 C 67.477501 79.806396 67.619804 80.028198 67.801399 80.215401 C 67.983002 80.402603 68.200401 80.551498 68.440498 80.653099 C 68.680603 80.754799 68.938705 80.807098 69.199402 80.807098 C 69.460098 80.807098 69.718102 80.754799 69.958199 80.653099 C 70.198402 80.551498 70.415703 80.402603 70.597305 80.215401 C 70.7789 80.028198 70.921204 79.806396 71.015701 79.563103 C 71.1101 79.319801 71.1549 79.060097 71.147301 78.799202 L 71.147301 73.857697 L 75.421906 76.3293 C 75.8685 76.574203 76.393105 76.6343 76.883499 76.496902 C 77.373802 76.359398 77.790901 76.035301 78.045601 75.593903 C 78.300301 75.152397 78.3722 74.6287 78.246101 74.134804 C 78.120003 73.640999 77.805702 73.216103 77.370705 72.951202 L 73.094398 70.479599 L 77.370705 68.008102 C 77.591904 67.879601 77.785805 67.7089 77.941101 67.505501 C 78.096405 67.302101 78.210098 67.07 78.275902 66.822601 C 78.341599 66.575104 78.358002 66.3172 78.324104 66.0634 C 78.290199 65.809601 78.206703 65.565002 78.0784 65.343498 Z"/>
    <path id="path16" fill="#6f4ae7" stroke="none" d="M 103.013496 65.343498 C 102.755302 64.896301 102.330299 64.569901 101.831902 64.436096 C 101.333504 64.302299 100.802399 64.372002 100.355301 64.630005 L 96.080704 67.101601 L 96.080704 62.158401 C 96.065903 61.6511 95.854103 61.169498 95.490501 60.815796 C 95.126801 60.462196 94.639702 60.264397 94.132698 60.264397 C 93.625801 60.264397 93.138695 60.462196 92.775002 60.815796 C 92.411301 61.169498 92.1996 61.6511 92.184799 62.158401 L 92.184799 67.101601 L 87.908501 64.630005 C 87.686699 64.494904 87.440102 64.405602 87.183296 64.367294 C 86.926598 64.328903 86.664696 64.3424 86.4132 64.4067 C 86.161598 64.4711 85.925499 64.585205 85.718597 64.742203 C 85.511696 64.8993 85.338196 65.0961 85.208397 65.321198 C 85.078499 65.546295 84.994896 65.795105 84.962395 66.052902 C 84.93 66.310799 84.949295 66.572601 85.019295 66.822899 C 85.089294 67.073196 85.208595 67.306999 85.370094 67.510498 C 85.531601 67.714005 85.731995 67.883202 85.959801 68.008102 L 90.236099 70.479599 L 85.959801 72.951202 C 85.524696 73.216103 85.210495 73.640999 85.084396 74.134804 C 84.958199 74.6287 85.030197 75.152397 85.284798 75.593903 C 85.539497 76.035301 85.956596 76.359398 86.446999 76.496902 C 86.937302 76.6343 87.461899 76.574203 87.908501 76.3293 L 92.184799 73.857697 L 92.184799 78.799202 C 92.1772 79.060097 92.222 79.319801 92.316399 79.563103 C 92.410896 79.806396 92.5532 80.028198 92.734795 80.215401 C 92.916397 80.402603 93.133698 80.551498 93.373901 80.653099 C 93.613998 80.754799 93.872002 80.807098 94.132698 80.807098 C 94.393394 80.807098 94.651497 80.754799 94.891602 80.653099 C 95.131699 80.551498 95.349098 80.402603 95.530701 80.215401 C 95.712303 80.028198 95.854599 79.806396 95.949097 79.563103 C 96.043503 79.319801 96.088303 79.060097 96.080704 78.799202 L 96.080704 73.857697 L 100.355301 76.3293 C 100.801903 76.574203 101.3265 76.6343 101.816803 76.496902 C 102.307198 76.359398 102.724297 76.035301 102.978996 75.593903 C 103.233597 75.152397 103.305603 74.6287 103.179497 74.134804 C 103.053299 73.640999 102.739098 73.216103 102.3041 72.951202 L 98.029404 70.479599 L 102.299103 68.008102 C 102.746696 67.749496 103.073402 67.323601 103.207397 66.823898 C 103.3414 66.324203 103.271599 65.791702 103.013496 65.343498 Z"/>
    <path id="path17" fill="none" stroke="#000000" stroke-width="1.5" stroke-linecap="round" stroke-linejoin="round" d="M 154.809998 68.716095 L 159.768997 63.757301"/>
    <path id="path18" fill="none" stroke="#000000" stroke-width="1.5" stroke-linecap="round" stroke-linejoin="round" d="M 159.505005 76.278 L 166.175003 74.110901"/>
    <path id="path19" fill="none" stroke="#000000" stroke-width="1.5" stroke-linecap="round" stroke-linejoin="round" d="M 154.809998 92.73056 L 159.768875 97.689438"/>
    <path id="path20" fill="none" stroke="#000000" stroke-width="1.500001" stroke-linecap="round" stroke-linejoin="round" d="M 159.505524 85.168755 L 166.175201 87.335861"/>
</svg>

<svg width="200" height="125" xmlns="http://www.w3.org/2000/svg"><path fill="#c3c5ff" d="M90.62 65.98H42.86a1.58 1.58 0 0 0-1.578 1.58v36.459c0 .873.707 1.58 1.578 1.58H90.62a1.58 1.58 0 0 0 1.578-1.58V67.56a1.58 1.58 0 0 0-1.578-1.58Z"/><path d="M62.477 12.378a.292.292 0 0 1-.293-.293V9.437a.293.293 0 0 1 .584 0v2.648a.292.292 0 0 1-.291.293Z"/><path fill-rule="evenodd" d="M62.476 9.333a.126.126 0 0 0-.126.112v2.64a.127.127 0 0 0 .078.117.127.127 0 0 0 .096 0 .124.124 0 0 0 .077-.116V9.445a.127.127 0 0 0-.125-.112Zm-.312-.21a.458.458 0 0 1 .769.301v2.66"/><path d="M64.096 10.76a.292.292 0 0 1-.29.294H61.16a.292.292 0 0 1 0-.584h2.645a.29.29 0 0 1 .29.29Z"/><path fill-rule="evenodd" d="M61.155 10.303h2.65a.457.457 0 0 1 .458.457m-3.095-.124a.126.126 0 0 0 0 .251h2.638a.124.124 0 0 0 .124-.125v-.001a.125.125 0 0 0-.124-.125h-2.638ZM79.781 112.921a.969.969 0 1 0 0 1.938.969.969 0 0 0 0-1.938Zm-1.633.969a1.634 1.634 0 1 1 3.268-.002 1.634 1.634 0 0 1-3.268.002ZM33.043 89.404a.97.97 0 1 0 0 1.938.97.97 0 0 0 0-1.938Zm-1.633.97a1.634 1.634 0 1 1 3.268-.002 1.634 1.634 0 0 1-3.268.002Z"/><path fill="#c3c5ff" d="M141.447 27.611H47.86v16.855h93.587V27.611Z"/><path fill="#fff" stroke="#111" stroke-linecap="round" stroke-linejoin="round" d="M48.36 99.023V44.85h92.587v54.173H48.36Z"/><path fill-rule="evenodd" d="M55.8 34.577a1.664 1.664 0 1 0 .002 3.328 1.664 1.664 0 0 0-.002-3.328Zm-2.328 1.665a2.329 2.329 0 1 1 4.655 0 2.329 2.329 0 0 1-2.327 2.33 2.329 2.329 0 0 1-2.328-2.33ZM64.743 34.454a1.664 1.664 0 1 0 .002 3.328 1.664 1.664 0 0 0-.002-3.328Zm-2.328 1.665a2.329 2.329 0 0 1 2.328-2.33 2.329 2.329 0 0 1 2.327 2.33 2.329 2.329 0 0 1-2.327 2.33 2.329 2.329 0 0 1-2.328-2.33ZM73.687 34.454a1.664 1.664 0 1 0 .002 3.328 1.664 1.664 0 0 0-.002-3.328Zm-2.327 1.665a2.329 2.329 0 0 1 2.327-2.33 2.329 2.329 0 0 1 2.328 2.33 2.329 2.329 0 0 1-2.328 2.33 2.329 2.329 0 0 1-2.327-2.33Z"/><path fill="#fff" stroke="#111" stroke-linecap="round" stroke-linejoin="round" d="M116.605 80.126v-8.038c0-2.963 1.175-5.805 3.268-7.9a11.153 11.153 0 0 1 15.782 0 11.177 11.177 0 0 1 3.268 7.9v8.038h6.327V72.6c0-4.642-1.843-9.095-5.122-12.378a17.475 17.475 0 0 0-24.728 0 17.516 17.516 0 0 0-5.122 12.378v7.526h6.327Z"/><path fill="#ad79ff" stroke="#111" stroke-linecap="round" stroke-linejoin="round" d="M146.039 80.01h-36.55a2.814 2.814 0 0 0-2.812 2.816v26.653a2.814 2.814 0 0 0 2.812 2.816h36.55a2.814 2.814 0 0 0 2.813-2.816V82.826a2.815 2.815 0 0 0-2.813-2.816Z"/><path fill="#fff" stroke="#111" stroke-linecap="round" stroke-linejoin="round" d="M132.328 93.667a4.569 4.569 0 0 1-2.13 3.865v3.24a2.438 2.438 0 0 1-2.434 2.437 2.432 2.432 0 0 1-2.434-2.437v-3.24a4.566 4.566 0 0 1-2.128-3.998 4.572 4.572 0 0 1 2.357-3.867 4.56 4.56 0 0 1 6.168 1.735c.394.69.601 1.47.601 2.265Z"/><path fill="#6f4ae7" d="M78.078 65.343a1.947 1.947 0 0 0-2.658-.713l-4.274 2.472v-4.944a1.952 1.952 0 0 0-1.948-1.894 1.948 1.948 0 0 0-1.948 1.894v4.944l-4.275-2.472a1.946 1.946 0 0 0-2.905 1.435 1.954 1.954 0 0 0 .958 1.943l4.273 2.472-4.275 2.471a1.949 1.949 0 0 0-.712 2.665 1.949 1.949 0 0 0 2.661.713l4.276-2.471v4.941a1.954 1.954 0 0 0 1.19 1.854 1.946 1.946 0 0 0 2.575-1.09c.094-.243.139-.503.131-.764v-4.941l4.275 2.471a1.947 1.947 0 0 0 2.624-.735 1.953 1.953 0 0 0-.675-2.643l-4.277-2.471 4.277-2.472a1.95 1.95 0 0 0 .707-2.665ZM103.013 65.343a1.948 1.948 0 0 0-2.658-.713l-4.274 2.472v-4.944a1.953 1.953 0 0 0-1.948-1.894 1.948 1.948 0 0 0-1.948 1.894v4.944l-4.276-2.472a1.946 1.946 0 0 0-2.7.691 1.953 1.953 0 0 0 .75 2.687l4.277 2.472-4.276 2.471a1.95 1.95 0 0 0 1.949 3.378l4.276-2.471v4.941a1.954 1.954 0 0 0 1.189 1.854 1.945 1.945 0 0 0 2.575-1.09c.095-.243.14-.503.132-.764v-4.941l4.274 2.471a1.947 1.947 0 0 0 2.624-.735 1.954 1.954 0 0 0-.675-2.643L98.03 70.48l4.27-2.472a1.951 1.951 0 0 0 .714-2.665Z"/><path fill="none" stroke="#000" stroke-width="1.5" stroke-linecap="round" stroke-linejoin="round" d="m154.81 68.716 4.959-4.959M159.505 76.278l6.67-2.167M154.81 92.73l4.959 4.96M159.506 85.169l6.67 2.167"/></svg>
